**harm	**harte	**timestamp	**phrase	**leadinstrument	**kern
*M4/4	*M4/4	*	*	*	*
*b:	*b:	*	*	*	*b:
1r;	N	0	.	r	1r;
=1	=1	=1	=1	=1	=1
*>A_intro	*>A_intro	*>A_intro	*>A_intro	*>A_intro	*>A_intro
1v	F#:1	0.255	newline	synthesizer	1F# 1a 1cc#
=2	=2	=2	=2	=2	=2
1v	F#:1	2.473	.	synthesizer	1F# 1a 1cc#
=3	=3	=3	=3	=3	=3
*>B_trans	*>B_trans	*>B_trans	*>B_trans	*>B_trans	*>B_trans
1i	B:min	4.69	newline	voice	1B 1dd 1ff#
=4	=4	=4	=4	=4	=4
1i	B:min	6.884	.	voice	1B 1dd 1ff#
=5	=5	=5	=5	=5	=5
1i	B:min	9.079	.	voice	1B 1dd 1ff#
=6	=6	=6	=6	=6	=6
1i	B:min	11.273	.	voice	1B 1dd 1ff#
=7	=7	=7	=7	=7	=7
*>C_prechorus	*>C_prechorus	*>C_prechorus	*>C_prechorus	*>C_prechorus	*>C_prechorus
1i	B:min	13.467	newline	voice	1B 1dd 1ff#
=8	=8	=8	=8	=8	=8
1i	B:min	15.664	.	voice	1B 1dd 1ff#
=9	=9	=9	=9	=9	=9
1i	B:min	17.86	.	voice	1B 1dd 1ff#
=10	=10	=10	=10	=10	=10
1i	B:min	20.057	.	voice	1B 1dd 1ff#
=11	=11	=11	=11	=11	=11
1vf	F#:min/4	22.253	newline	voice	1F# 1a 1cc#
=12	=12	=12	=12	=12	=12
1vf	F#:min/4	24.45	.	voice	1F# 1a 1cc#
=13	=13	=13	=13	=13	=13
1vf	F#:min/4	26.647	.	voice	1F# 1a 1cc#
=14	=14	=14	=14	=14	=14
1vf	F#:min/4	28.844	.	voice	1F# 1a 1cc#
=15	=15	=15	=15	=15	=15
*>D_preverse	*>D_preverse	*>D_preverse	*>D_preverse	*>D_preverse	*>D_preverse
1i	B:min	31.041	newline	voice	1B 1dd 1ff#
=16	=16	=16	=16	=16	=16
1i	B:min	33.24	.	voice	1B 1dd 1ff#
=17	=17	=17	=17	=17	=17
1i	B:min	35.439	.	voice	1B 1dd 1ff#
=18	=18	=18	=18	=18	=18
1i	B:min	37.638	.	voice	1B 1dd 1ff#
=19	=19	=19	=19	=19	=19
*>E_verse	*>E_verse	*>E_verse	*>E_verse	*>E_verse	*>E_verse
1i	B:min	39.838	newline	voice	1B 1dd 1ff#
=20	=20	=20	=20	=20	=20
1i	B:min	42.041	.	voice	1B 1dd 1ff#
=21	=21	=21	=21	=21	=21
1i	B:min	44.244	.	voice	1B 1dd 1ff#
=22	=22	=22	=22	=22	=22
1i	B:min	46.447	.	voice	1B 1dd 1ff#
=23	=23	=23	=23	=23	=23
1i	B:min	48.651	newline	voice	1B 1dd 1ff#
=24	=24	=24	=24	=24	=24
1i	B:min	50.85	.	voice	1B 1dd 1ff#
=25	=25	=25	=25	=25	=25
1i	B:min	53.05	.	voice	1B 1dd 1ff#
=26	=26	=26	=26	=26	=26
1i	B:min	55.25	.	voice	1B 1dd 1ff#
=27	=27	=27	=27	=27	=27
1i	B:min	57.45	newline	saxophone	1B 1dd 1ff#
=28	=28	=28	=28	=28	=28
1i	B:min	59.626	.	saxophone	1B 1dd 1ff#
=29	=29	=29	=29	=29	=29
*>C_chorus	*>C_chorus	*>C_chorus	*>C_chorus	*>C_chorus	*>C_chorus
1i	B:min	61.801	newline	voice	1B 1dd 1ff#
=30	=30	=30	=30	=30	=30
1i	B:min	64.003	.	voice	1B 1dd 1ff#
=31	=31	=31	=31	=31	=31
1i	B:min	66.204	.	voice	1B 1dd 1ff#
=32	=32	=32	=32	=32	=32
1i	B:min	68.406	.	voice	1B 1dd 1ff#
=33	=33	=33	=33	=33	=33
1vf	F#:min/4	70.607	newline	voice	1F# 1a 1cc#
=34	=34	=34	=34	=34	=34
1vf	F#:min/4	72.81	.	voice	1F# 1a 1cc#
=35	=35	=35	=35	=35	=35
1vf	F#:min/4	75.012	.	voice	1F# 1a 1cc#
=36	=36	=36	=36	=36	=36
1vf	F#:min/4	77.215	.	voice	1F# 1a 1cc#
=37	=37	=37	=37	=37	=37
*>D_preverse	*>D_preverse	*>D_preverse	*>D_preverse	*>D_preverse	*>D_preverse
1i	B:min	79.417	newline	voice	1B 1dd 1ff#
=38	=38	=38	=38	=38	=38
1i	B:min	81.614	.	voice	1B 1dd 1ff#
=39	=39	=39	=39	=39	=39
1i	B:min	83.811	.	voice	1B 1dd 1ff#
=40	=40	=40	=40	=40	=40
1i	B:min	86.007	.	voice	1B 1dd 1ff#
=41	=41	=41	=41	=41	=41
*>A_intro	*>A_intro	*>A_intro	*>A_intro	*>A_intro	*>A_intro
1v	F#:1	88.204	newline	synthesizer	1F# 1a 1cc#
=42	=42	=42	=42	=42	=42
1v	F#:1	90.396	.	synthesizer	1F# 1a 1cc#
=43	=43	=43	=43	=43	=43
*>F_chorus	*>F_chorus	*>F_chorus	*>F_chorus	*>F_chorus	*>F_chorus
1i	B:min	92.588	newline	voice	1B 1dd 1ff#
=44	=44	=44	=44	=44	=44
1i	B:min	94.798	.	voice	1B 1dd 1ff#
=45	=45	=45	=45	=45	=45
1i	B:min	97.009	.	voice	1B 1dd 1ff#
=46	=46	=46	=46	=46	=46
1i	B:min	99.219	.	voice	1B 1dd 1ff#
=47	=47	=47	=47	=47	=47
1vf	F#:min/4	101.429	newline	voice	1F# 1a 1cc#
=48	=48	=48	=48	=48	=48
1vf	F#:min/4	103.624	.	voice	1F# 1a 1cc#
=49	=49	=49	=49	=49	=49
1vf	F#:min/4	105.818	.	voice	1F# 1a 1cc#
=50	=50	=50	=50	=50	=50
1vf	F#:min/4	108.013	.	voice	1F# 1a 1cc#
=51	=51	=51	=51	=51	=51
1i	B:min	110.207	newline	voice	1B 1dd 1ff#
=52	=52	=52	=52	=52	=52
1i	B:min	112.408	.	voice	1B 1dd 1ff#
=53	=53	=53	=53	=53	=53
1i	B:min	114.608	.	voice	1B 1dd 1ff#
=54	=54	=54	=54	=54	=54
1i	B:min	116.809	.	voice	1B 1dd 1ff#
=55	=55	=55	=55	=55	=55
1vf	F#:min/4	119.01	newline	voice	1F# 1a 1cc#
=56	=56	=56	=56	=56	=56
1vf	F#:min/4	121.2	.	voice	1F# 1a 1cc#
=57	=57	=57	=57	=57	=57
1vf	F#:min/4	123.39	.	voice	1F# 1a 1cc#
=58	=58	=58	=58	=58	=58
1vf	F#:min/4	125.58	.	voice	1F# 1a 1cc#
=59	=59	=59	=59	=59	=59
*>G_interlude	*>G_interlude	*>G_interlude	*>G_interlude	*>G_interlude	*>G_interlude
1i	B:min	127.77	newline	synthesizer	1B 1dd 1ff#
=60	=60	=60	=60	=60	=60
1i	B:min	129.978	.	synthesizer	1B 1dd 1ff#
=61	=61	=61	=61	=61	=61
1i	B:min	132.186	.	synthesizer	1B 1dd 1ff#
=62	=62	=62	=62	=62	=62
1i	B:min	134.394	.	synthesizer	1B 1dd 1ff#
=63	=63	=63	=63	=63	=63
*>D_preverse	*>D_preverse	*>D_preverse	*>D_preverse	*>D_preverse	*>D_preverse
1i	B:min	136.602	newline	voice	1B 1dd 1ff#
=64	=64	=64	=64	=64	=64
1i	B:min	138.792	.	voice	1B 1dd 1ff#
=65	=65	=65	=65	=65	=65
1i	B:min	140.983	.	voice	1B 1dd 1ff#
=66	=66	=66	=66	=66	=66
1i	B:min	143.173	.	voice	1B 1dd 1ff#
=67	=67	=67	=67	=67	=67
*>D_preverse	*>D_preverse	*>D_preverse	*>D_preverse	*>D_preverse	*>D_preverse
1i	B:min	145.363	newline	voice	1B 1dd 1ff#
=68	=68	=68	=68	=68	=68
1i	B:min	147.567	.	voice	1B 1dd 1ff#
=69	=69	=69	=69	=69	=69
1i	B:min	149.771	.	voice	1B 1dd 1ff#
=70	=70	=70	=70	=70	=70
1i	B:min	151.975	.	voice	1B 1dd 1ff#
=71	=71	=71	=71	=71	=71
*>G_interlude	*>G_interlude	*>G_interlude	*>G_interlude	*>G_interlude	*>G_interlude
1i	B:min	154.178	newline	synthesizer	1B 1dd 1ff#
=72	=72	=72	=72	=72	=72
1i	B:min	156.365	.	synthesizer	1B 1dd 1ff#
=73	=73	=73	=73	=73	=73
*>E_verse	*>E_verse	*>E_verse	*>E_verse	*>E_verse	*>E_verse
1i	B:min	158.551	newline	voice	1B 1dd 1ff#
=74	=74	=74	=74	=74	=74
1i	B:min	160.761	.	voice	1B 1dd 1ff#
=75	=75	=75	=75	=75	=75
1i	B:min	162.97	.	voice	1B 1dd 1ff#
=76	=76	=76	=76	=76	=76
1i	B:min	165.18	.	voice	1B 1dd 1ff#
=77	=77	=77	=77	=77	=77
1i7	B:min7	167.39	newline	voice	1B 1dd 1ff# 1aa#
=78	=78	=78	=78	=78	=78
1i7	B:min7	169.581	.	voice	1B 1dd 1ff# 1aa#
=79	=79	=79	=79	=79	=79
1i	B:min	171.772	.	voice	1B 1dd 1ff#
=80	=80	=80	=80	=80	=80
1i	B:min	173.964	.	voice	1B 1dd 1ff#
=81	=81	=81	=81	=81	=81
*>A_interlude	*>A_interlude	*>A_interlude	*>A_interlude	*>A_interlude	*>A_interlude
1v	F#:1	176.155	newline	synthesizer	1F# 1a 1cc#
=82	=82	=82	=82	=82	=82
1v	F#:1	178.38	.	synthesizer	1F# 1a 1cc#
=83	=83	=83	=83	=83	=83
*>F_chorus	*>F_chorus	*>F_chorus	*>F_chorus	*>F_chorus	*>F_chorus
1i	B:min	180.604	newline	voice	1B 1dd 1ff#
=84	=84	=84	=84	=84	=84
1i	B:min	182.798	.	voice	1B 1dd 1ff#
=85	=85	=85	=85	=85	=85
1i	B:min	184.991	.	voice	1B 1dd 1ff#
=86	=86	=86	=86	=86	=86
1i	B:min	187.185	.	voice	1B 1dd 1ff#
=87	=87	=87	=87	=87	=87
1vf	F#:min/4	189.379	newline	voice	1F# 1a 1cc#
=88	=88	=88	=88	=88	=88
1vf	F#:min/4	191.575	.	voice	1F# 1a 1cc#
=89	=89	=89	=89	=89	=89
1vf	F#:min/4	193.77	.	voice	1F# 1a 1cc#
=90	=90	=90	=90	=90	=90
1vf	F#:min/4	195.966	.	voice	1F# 1a 1cc#
=91	=91	=91	=91	=91	=91
1i	B:min	198.161	newline	voice	1B 1dd 1ff#
=92	=92	=92	=92	=92	=92
1i	B:min	200.356	.	voice	1B 1dd 1ff#
=93	=93	=93	=93	=93	=93
1i	B:min	202.55	.	voice	1B 1dd 1ff#
=94	=94	=94	=94	=94	=94
1i	B:min	204.744	.	voice	1B 1dd 1ff#
=95	=95	=95	=95	=95	=95
1vf	F#:min/4	206.938	newline	voice	1F# 1a 1cc#
=96	=96	=96	=96	=96	=96
1vf	F#:min/4	209.146	.	voice	1F# 1a 1cc#
=97	=97	=97	=97	=97	=97
1vf	F#:min/4	211.355	.	voice	1F# 1a 1cc#
=98	=98	=98	=98	=98	=98
1vf	F#:min/4	213.563	.	voice	1F# 1a 1cc#
=99	=99	=99	=99	=99	=99
1i	B:min	215.771	newline	voice	1B 1dd 1ff#
1r;	N	217.826	.	r	1r;
1r;	N	220.891	.	r	1r;
*-	*-	*-	*-	*-	*-
!!!OTL: The Power
!!!COC: Snap
!!!BillboardChartDate: 1990/06/09, 1990/05/26
!!!BillboardPeak: 2, 2
!!!BillboardWeeksOnChart: 22, 22
!!!SampleTargetRank: 30, 52
!!!SampleActualRank: 28, 50
!!!SampleID#: 40, 742
!!!RDF**harmony: **recip + pitch class of root + harmonic quality
!!!RDF**harte: Chris Harte's syntax, used by MIREX
!!!RDF**phrase: newline = linebreak in original McGill transcription
!!!RDF**timestamp: McGill audio timestamp in seconds
!!!RDF**leadinstrument: original McGill primary instrumentation annotation
!!!RDT: 2017/01/12/
!!!ENC: Nathaniel Condit-Schultz
!!!EST: Awating manual error checking and editing.
